assets/images/thread.svg

<svg xmlns="http://www.w3.org/2000/svg" width="12" height="12" viewBox="0 0 12 12"><path fill-rule="evenodd" d="M0.846132 7.0551C0.955572 7.19409 1.00486 7.37422 0.966818 7.54786L0.397045 10.1484C0.347209 10.3759 0.582394 10.5585 0.785897 10.4504L3.57028 8.97111C3.68847 8.90832 3.82519 8.89308 3.95545 8.92235C4.10681 8.95637 4.26085 8.98517 4.41724 9.0085L7.42991 5.99583C7.95828 5.46746 8.74046 5.34759 9.38399 5.63621C9.67954 5.13862 10.197 4.78826 10.7999 4.72154L10.8 4.69927C10.8 2.27937 8.38234 0.31765 5.4 0.31765C2.41766 0.31765 0 2.27937 0 4.69927C0 5.56645 0.310468 6.37479 0.846132 7.0551ZM10.9335 6.06665C11.2648 6.06665 11.5335 6.33528 11.5335 6.66665V7.33332C11.5335 8.76926 10.3694 9.93332 8.93346 9.93332H8.04864L9.02435 10.909C9.25867 11.1434 9.25867 11.5233 9.02435 11.7576C8.79004 11.9919 8.41014 11.9919 8.17583 11.7576L5.75156 9.3333L8.17583 6.90904C8.41014 6.67472 8.79004 6.67472 9.02435 6.90904C9.25867 7.14335 9.25867 7.52325 9.02435 7.75757L8.0486 8.73332H8.93346C9.70666 8.73332 10.3335 8.10652 10.3335 7.33332V6.66665C10.3335 6.33528 10.6021 6.06665 10.9335 6.06665Z" clip-rule="evenodd"/></svg>

<svg xmlns="http://www.w3.org/2000/svg" width="12" height="12" viewBox="0 0 12 12"><path fill-rule="evenodd" d="M.846 7.055c.11.14.159.32.12.493l-.569 2.6a.27.27 0 0 0 .389.302L3.57 8.971a.56.56 0 0 1 .385-.049q.228.051.462.086L7.43 5.996a1.75 1.75 0 0 1 1.954-.36 1.89 1.89 0 0 1 1.416-.914v-.023C10.8 2.28 8.382.318 5.4.318S0 2.279 0 4.699c0 .867.31 1.676.846 2.356m10.088-.988a.6.6 0 0 1 .6.6v.666a2.6 2.6 0 0 1-2.6 2.6h-.885l.975.976a.6.6 0 0 1-.848.849L5.752 9.333 8.176 6.91a.6.6 0 1 1 .848.849l-.975.975h.884a1.4 1.4 0 0 0 1.4-1.4v-.666a.6.6 0 0 1 .6-.6" clip-rule="evenodd"/></svg>
